src/svgs/biohazard.svg

<svg xmlns="http://www.w3.org/2000/svg" viewBox="0 0 24 24" width="512" height="512"><path d="M20.4 12a5.414 5.414 0 00-3.473-1.562 5.443 5.443 0 00-4.014-7.758v.941a3.9 3.9 0 11-1.817.009v-.944a5.444 5.444 0 00-3.987 7.75A5.428 5.428 0 003 19.011l.669-.669a3.9 3.9 0 111.281 1.291l-.666.666A5.443 5.443 0 0012 18.886a5.443 5.443 0 007.716 1.414l-.666-.666a3.9 3.9 0 111.278-1.291l.669.669A5.457 5.457 0 0020.4 12zM12 14.24a1 1 0 111-1 1 1 0 01-1 1zm5-.591a2.646 2.646 0 01.785.131 5.841 5.841 0 01-2.838 4.241 2.673 2.673 0 01-.44-.745 4.966 4.966 0 002.422-3.62c.027-.001.049-.007.071-.007zm-10.764.3A2.562 2.562 0 017 13.82c.029 0 .057.008.086.009a4.981 4.981 0 002.341 3.413 2.549 2.549 0 01-.415.758 5.847 5.847 0 01-2.774-4.053zm3.233-6.241a5.8 5.8 0 015.1.018 2.558 2.558 0 01-.251.844 4.815 4.815 0 00-4.606-.017 2.553 2.553 0 01-.243-.845z"/></svg>

<svg xmlns="http://www.w3.org/2000/svg" viewBox="0 0 24 24"><path d="M20.4,12a5.414,5.414,0,0,0-3.473-1.562,5.443,5.443,0,0,0-4.014-7.758v.941a3.9,3.9,0,1,1-1.817.009V2.686a5.444,5.444,0,0,0-3.987,7.75A5.428,5.428,0,0,0,3,19.011l.669-.669A3.9,3.9,0,1,1,4.95,19.633l-.666.666A5.443,5.443,0,0,0,12,18.886,5.443,5.443,0,0,0,19.716,20.3l-.666-.666a3.9,3.9,0,1,1,1.278-1.291l.669.669A5.457,5.457,0,0,0,20.4,12ZM12,14.24a1,1,0,1,1,1-1A1,1,0,0,1,12,14.24Zm5-.591a2.646,2.646,0,0,1,.785.131,5.841,5.841,0,0,1-2.838,4.241,2.673,2.673,0,0,1-.44-.745,4.966,4.966,0,0,0,2.422-3.62C16.956,13.655,16.978,13.649,17,13.649Zm-10.764.3A2.562,2.562,0,0,1,7,13.82c.029,0,.057.008.086.009a4.981,4.981,0,0,0,2.341,3.413A2.549,2.549,0,0,1,9.012,18,5.847,5.847,0,0,1,6.238,13.947ZM9.469,7.708a5.8,5.8,0,0,1,5.1.018,2.558,2.558,0,0,1-.251.844,4.815,4.815,0,0,0-4.606-.017A2.553,2.553,0,0,1,9.469,7.708Z"/></svg>
